svg/furkot/freepik/sciencemuseum.svg

<svg viewBox="0 0 512 512" xmlns="http://www.w3.org/2000/svg"><path d="m482.861 8.804c-27.838-16.05-63.433-6.5-79.483 21.337-10.719 18.566-9.828 40.47.089 57.834l-87.363 111.649c-13.445-6.444-28.449-10.151-44.332-10.151-3.05 0-6.066.201-9.049.457l-20.046-63.421c16.84-14.147 25.01-37.154 18.855-59.76-8.426-31.02-40.404-49.33-71.424-40.893-31.021 8.426-49.319 40.403-40.893 71.424 6.567 24.142 27.425 40.392 50.966 42.518l20.09 63.577c-30.731 17.82-51.467 50.989-51.467 89.066 0 3.929.267 7.769.69 11.576l-68.118 23.385c-16.562-18.51-43.665-25.177-67.428-14.269-29.218 13.401-42.029 47.949-28.628 77.167s47.95 42.028 77.157 28.627c20.224-9.282 32.322-28.727 33.569-49.486l67.973-23.329c18.099 29.518 50.577 49.297 87.753 49.297 17.597 0 34.137-4.419 48.64-12.222l37.276 43.365c-9.662 19.055-8.638 42.651 4.975 60.972 19.167 25.789 55.619 31.177 81.408 12.01 25.8-19.178 31.165-55.619 12.01-81.419-15.271-20.547-41.45-27.882-64.523-20.436l-37.465-43.575c12.9-17.197 20.635-38.489 20.635-61.641 0-24.865-8.815-47.66-23.485-65.458l87.463-111.783c24.843 6.701 52.024-3.55 65.492-26.902 16.061-27.882 6.511-63.466-21.337-79.516z"/></svg>

<svg xmlns="http://www.w3.org/2000/svg" viewBox="0 0 512 512"><path d="M482.861 8.804C455.023-7.246 419.428 2.304 403.378 30.141 392.659 48.707 393.55 70.611 403.467 87.975L316.104 199.624C302.659 193.18 287.655 189.473 271.772 189.473 268.722 189.473 265.706 189.674 262.723 189.93L242.677 126.509C259.517 112.362 267.687 89.355 261.532 66.749 253.106 35.729 221.128 17.419 190.108 25.856 159.087 34.282 140.789 66.259 149.215 97.28 155.782 121.422 176.64 137.672 200.181 139.798L220.271 203.375C189.54 221.195 168.804 254.364 168.804 292.441 168.804 296.37 169.071 300.21 169.494 304.017L101.376 327.402C84.814 308.892 57.711 302.225 33.948 313.133 4.73 326.534-8.081 361.082 5.32 390.3S53.27 432.328 82.477 418.927C102.701 409.645 114.799 390.2 116.046 369.441L184.019 346.112C202.118 375.63 234.596 395.409 271.772 395.409 289.369 395.409 305.909 390.99 320.412 383.187L357.688 426.552C348.026 445.607 349.05 469.203 362.663 487.524 381.83 513.313 418.282 518.701 444.071 499.534 469.871 480.356 475.236 443.915 456.081 418.115 440.81 397.568 414.631 390.233 391.558 397.679L354.093 354.104C366.993 336.907 374.728 315.615 374.728 292.463 374.728 267.598 365.913 244.803 351.243 227.005L438.706 115.222C463.549 121.923 490.73 111.672 504.198 88.32 520.259 60.438 510.709 24.854 482.861 8.804Z"/></svg>
